public/assets/svgs/twitter.svg

<?xml version="1.0" encoding="UTF-8" standalone="no"?>
<svg width="57px" height="46px" viewBox="0 0 57 46" version="1.1" xmlns="http://www.w3.org/2000/svg" xmlns:xlink="http://www.w3.org/1999/xlink">
  <defs></defs>
  <g id="Page-1" stroke="none" stroke-width="1" fill="none" fill-rule="evenodd">
    <g id="Icons" transform="translate(-481.000000, -384.000000)" fill="#65BBF2">
      <g id="4--Twitter--(social,-media,-communication,-flat)" transform="translate(481.000000, 383.000000)">
        <path
          d="M39.7746,1.0001 C33.1686,1.1211 27.9996,6.7911 27.9996,13.3981 L27.9996,15.0001 C16.2496,12.8751 10.3746,9.6881 3.9996,3.0001 C0.1866,10.3751 4.3536,16.6251 8.9996,20.0001 C5.8906,20.0001 3.3396,19.5541 1.3346,17.8061 C1.1836,17.6741 0.9456,17.8101 0.9996,18.0031 C2.7436,24.1701 8.4886,28.6571 12.9996,30.0001 C8.9276,30.0001 6.1666,30.6071 3.3146,28.7731 C3.1496,28.6671 2.9376,28.8271 3.0036,29.0121 C5.1626,35.0771 9.5696,37.0001 15.9996,37.0001 C12.8026,39.3521 8.5486,41.8231 0.4086,41.9931 C0.0786,42.0001 -0.0814,42.4121 0.1766,42.6191 C3.2496,45.0971 10.6166,47.0001 20.9996,47.0001 C38.1346,47.0001 51.9996,31.7931 51.9996,13.0001 L51.9996,12.0001 C54.6656,11.0031 56.2296,8.6171 56.9916,6.2211 C57.0346,6.0881 56.9016,5.9641 56.7696,6.0091 L51.1416,7.9511 C51.0136,7.9951 50.9256,7.8321 51.0296,7.7471 C53.3856,5.8071 55.2546,3.4201 55.9926,1.1431 C56.0216,1.0551 55.9266,0.9751 55.8416,1.0111 C53.1406,2.1441 50.5676,3.2091 48.5346,3.8401 C48.1956,3.9461 47.8366,3.9021 47.5266,3.7281 C46.1926,2.9811 42.3296,0.9531 39.7746,1.0001"
          id="Fill-61"></path>
      </g>
    </g>
  </g>
</svg>

<svg height="46" viewBox="0 0 57 46" width="57" xmlns="http://www.w3.org/2000/svg"><path d="m39.7746 1.0001c-6.606.121-11.775 5.791-11.775 12.398v1.602c-11.75-2.125-17.625-5.312-24-12-3.813 7.375.354 13.625 5 17-3.109 0-5.66-.446-7.665-2.194-.151-.132-.389.004-.335.197 1.744 6.167 7.489 10.654 12 11.997-4.072 0-6.833.607-9.685-1.227-.165-.106-.377.054-.311.239 2.159 6.065 6.566 7.988 12.996 7.988-3.197 2.352-7.451 4.823-15.591 4.993-.33.007-.49.419-.232.626 3.073 2.478 10.44 4.381 20.823 4.381 17.135 0 31-15.207 31-34v-1c2.666-.997 4.23-3.383 4.992-5.779.043-.133-.09-.257-.222-.212l-5.628 1.942c-.128.044-.216-.119-.112-.204 2.356-1.94 4.225-4.327 4.963-6.604.029-.088-.066-.168-.151-.132-2.701 1.133-5.274 2.198-7.307 2.829-.339.106-.698.062-1.008-.112-1.334-.747-5.197-2.775-7.752-2.728" fill="#65bbf2" fill-rule="evenodd" transform="translate(0 -1)"/></svg>
